X:96
T:Small Coals. JMT.096
M:4/4
L:1/8
Q:1/2=100
S:J.Moore,Tyneside,1841.(68a)
R:.Reel
O:England
A:Northumbria
N:”….and little money” NB..extra g,b,f,d here in MS, presumed error…
Z:vmp.Chris Partington
K:G
E2BE GABd|D2AD FGAc|E2BE GABd|gfed eEE2:|!
edefg2fe|”sic”cdef fafd|edefg2(fe)|efed eEE2|!
edefg2fe|defg fafd|”NB”gbfe fafd|efed eEE2|]

